packages/dnb-ui-lib/assets/icons/savings_account_in_medium.svg

<svg width="24" height="24" viewBox="0 0 24 24" fill="none" xmlns="http://www.w3.org/2000/svg">
<path d="M1 13.75C0.585786 13.75 0.25 14.0858 0.25 14.5C0.25 14.9142 0.585786 15.25 1 15.25V13.75ZM5.46967 16.4697C5.17678 16.7626 5.17678 17.2374 5.46967 17.5303C5.76256 17.8232 6.23744 17.8232 6.53033 17.5303L5.46967 16.4697ZM8.5 14.5L9.03033 15.0303C9.32322 14.7374 9.32322 14.2626 9.03033 13.9697L8.5 14.5ZM6.53033 11.4697C6.23744 11.1768 5.76256 11.1768 5.46967 11.4697C5.17678 11.7626 5.17678 12.2374 5.46967 12.5303L6.53033 11.4697ZM3.73739 7.0125L4.41933 6.70033L4.41926 6.70016L3.73739 7.0125ZM4.33006 5.5849L4.57922 6.2923L4.57922 6.2923L4.33006 5.5849ZM7.87841 5.8026L7.53988 6.47186C7.75749 6.58193 8.01502 6.57933 8.23036 6.4649L7.87841 5.8026ZM21.111 17.9943L21.6545 18.5111L21.655 18.5105L21.111 17.9943ZM20.8926 18.338L20.1923 18.0697C20.1859 18.0862 20.1802 18.1029 20.175 18.1199L20.8926 18.338ZM19.6019 22.5833L20.3034 22.8486C20.3093 22.8331 20.3147 22.8174 20.3195 22.8015L19.6019 22.5833ZM15.242 22.4083L14.4985 22.5066C14.5004 22.5211 14.5028 22.5356 14.5056 22.55L15.242 22.4083ZM15.0682 21.0925L15.8117 20.9942C15.8098 20.9799 15.8075 20.9657 15.8048 20.9515L15.0682 21.0925ZM11.301 21.0925L10.5645 20.9508C10.5597 20.9755 10.5562 21.0006 10.5539 21.0257L11.301 21.0925ZM11.1834 22.4083L11.92 22.5493C11.9247 22.5247 11.9282 22.5 11.9304 22.4751L11.1834 22.4083ZM6.88636 22.5219L6.16179 22.7155C6.16436 22.7251 6.16712 22.7347 6.17007 22.7442L6.88636 22.5219ZM2.93352 10.2786L3.03064 11.0223L3.03181 11.0222L2.93352 10.2786ZM3.54716 9.92552L4.12352 10.4054L4.1244 10.4044L3.54716 9.92552ZM4.1071 9.25052L3.52999 8.77152L3.52986 8.77167L4.1071 9.25052ZM4.25284 8.13854L4.93485 7.8265L4.93479 7.82637L4.25284 8.13854ZM11.25 2.25C11.25 2.66421 11.5858 3 12 3C12.4142 3 12.75 2.66421 12.75 2.25H11.25ZM14.25 2.25C14.25 2.66421 14.5858 3 15 3C15.4142 3 15.75 2.66421 15.75 2.25H14.25ZM10.5 7.5C10.0858 7.5 9.75 7.83579 9.75 8.25C9.75 8.66421 10.0858 9 10.5 9V7.5ZM15.75 9C16.1642 9 16.5 8.66421 16.5 8.25C16.5 7.83579 16.1642 7.5 15.75 7.5V9ZM0.933875 10.4698C0.641065 10.7628 0.6412 11.2377 0.934176 11.5305C1.22715 11.8233 1.70203 11.8232 1.99484 11.5302L0.933875 10.4698ZM7.2042 20.8064C7.09725 20.4062 6.68615 20.1685 6.28598 20.2754C5.88581 20.3824 5.64811 20.7935 5.75506 21.1936L7.2042 20.8064ZM6.53033 17.5303L9.03033 15.0303L7.96967 13.9697L5.46967 16.4697L6.53033 17.5303ZM9.03033 13.9697L6.53033 11.4697L5.46967 12.5303L7.96967 15.0303L9.03033 13.9697ZM1 15.25H8.5V13.75H1V15.25ZM4.41926 6.70016C4.34128 6.52993 4.43267 6.34391 4.57922 6.2923L4.0809 4.87749C3.07995 5.23004 2.62009 6.37424 3.05552 7.32484L4.41926 6.70016ZM4.57922 6.2923C4.98342 6.14993 5.41475 6.07031 5.84267 6.07031V4.57031C5.2315 4.57031 4.63192 4.68341 4.08089 4.87749L4.57922 6.2923ZM5.84267 6.07031C6.45531 6.07031 7.03551 6.21673 7.53988 6.47186L8.21694 5.13335C7.50631 4.77389 6.69458 4.57031 5.84267 4.57031V6.07031ZM8.23036 6.4649C9.65655 5.70699 11.6602 5.25 13.5341 5.25V3.75C11.4562 3.75 9.20322 4.24926 7.52646 5.14031L8.23036 6.4649ZM13.5341 5.25C18.7352 5.25 22.5 8.83156 22.5 12.9375H24C24 7.83198 19.3815 3.75 13.5341 3.75V5.25ZM22.5 12.9375C22.5 14.6595 21.7981 16.1805 20.5669 17.478L21.655 18.5105C23.1034 16.984 24 15.1072 24 12.9375H22.5ZM20.5674 17.4775C20.4084 17.6447 20.2784 17.845 20.1923 18.0697L21.593 18.6064C21.605 18.5748 21.6253 18.5417 21.6545 18.5111L20.5674 17.4775ZM20.175 18.1199L18.8844 22.3652L20.3195 22.8015L21.6102 18.5562L20.175 18.1199ZM18.9004 22.318C18.8566 22.4338 18.7524 22.5 18.6477 22.5V24C19.3888 24 20.0435 23.5359 20.3034 22.8486L18.9004 22.318ZM18.6477 22.5H16.2459V24H18.6477V22.5ZM16.2459 22.5C16.126 22.5 16.0065 22.4119 15.9785 22.2666L14.5056 22.55C14.6658 23.3829 15.388 24 16.2459 24V22.5ZM15.9856 22.3101L15.8117 20.9942L14.3246 21.1907L14.4985 22.5066L15.9856 22.3101ZM15.8048 20.9515C15.6454 20.1182 14.9229 19.5003 14.0644 19.5003V21.0003C14.1846 21.0003 14.3038 21.0886 14.3315 21.2334L15.8048 20.9515ZM14.0644 19.5003H12.3048V21.0003H14.0644V19.5003ZM12.3048 19.5003C11.4464 19.5003 10.7246 20.1185 10.5645 20.9508L12.0375 21.2342C12.0655 21.0883 12.1855 21.0003 12.3048 21.0003V19.5003ZM10.5539 21.0257L10.4363 22.3416L11.9304 22.4751L12.048 21.1592L10.5539 21.0257ZM10.4467 22.2674C10.4191 22.4117 10.3003 22.5 10.1795 22.5V24C11.0376 24 11.7604 23.3831 11.92 22.5493L10.4467 22.2674ZM10.1795 22.5H7.86153V24H10.1795V22.5ZM7.86153 22.5C7.75188 22.5 7.6422 22.427 7.60266 22.2996L6.17007 22.7442C6.3995 23.4834 7.07835 24 7.86153 24V22.5ZM3.03181 11.0222C3.48547 10.9622 3.86422 10.7168 4.12352 10.4054L2.9708 9.44562C2.91612 9.51128 2.86226 9.53154 2.83524 9.53511L3.03181 11.0222ZM4.1244 10.4044L4.68434 9.72937L3.52986 8.77167L2.96992 9.44667L4.1244 10.4044ZM4.68421 9.72952C5.12663 9.1965 5.22214 8.45441 4.93485 7.8265L3.57084 8.45058C3.62003 8.55809 3.60201 8.68475 3.52999 8.77152L4.68421 9.72952ZM4.93479 7.82637L4.41933 6.70033L3.05544 7.32467L3.57089 8.45071L4.93479 7.82637ZM12.75 2.25C12.75 1.83571 13.0857 1.5 13.5 1.5V0C12.2573 0 11.25 1.00729 11.25 2.25H12.75ZM13.5 1.5C13.9143 1.5 14.25 1.83571 14.25 2.25H15.75C15.75 1.00729 14.7427 0 13.5 0V1.5ZM10.5 9H15.75V7.5H10.5V9ZM1.99484 11.5302C2.26421 11.2607 2.6249 11.0753 3.03064 11.0223L2.83641 9.53496C2.09625 9.63162 1.43261 9.9708 0.933875 10.4698L1.99484 11.5302ZM7.61093 22.3282L7.2042 20.8064L5.75506 21.1936L6.16179 22.7155L7.61093 22.3282Z" fill="black"/>
</svg>

<svg width="24" height="24" viewBox="0 0 24 24" fill="none" xmlns="http://www.w3.org/2000/svg"><path d="M1 13.75a.75.75 0 000 1.5v-1.5zm4.47 2.72a.75.75 0 101.06 1.06l-1.06-1.06zM8.5 14.5l.53.53a.75.75 0 000-1.06l-.53.53zm-1.97-3.03a.75.75 0 00-1.06 1.06l1.06-1.06zM3.737 7.012L4.42 6.7l-.682.313zm.593-1.427l.25.707-.25-.707zm3.548.218l-.338.669a.75.75 0 00.69-.007l-.352-.662zm13.233 12.191l.543.517h.001l-.544-.517zm-.218.344l-.7-.268a.725.725 0 00-.018.05l.718.218zm-1.291 4.245l.701.266a.706.706 0 00.017-.047l-.718-.219zm-4.36-.175l-.744.099a.713.713 0 00.008.043l.736-.142zm-.174-1.316l.744-.098a.774.774 0 00-.007-.043l-.737.142zm-3.767 0l-.736-.141a.754.754 0 00-.011.075l.747.067zm-.118 1.316l.737.141a.744.744 0 00.01-.074l-.747-.067zm-4.297.114l-.724.194.008.028.716-.222zM2.934 10.279l.097.743-.097-.743zm.613-.353l.577.48v-.002l-.577-.478zm.56-.675l-.577-.48.577.48zm.146-1.112l.682-.312-.682.312zM11.25 2.25a.75.75 0 001.5 0h-1.5zm3 0a.75.75 0 001.5 0h-1.5zM10.5 7.5a.75.75 0 000 1.5V7.5zM15.75 9a.75.75 0 000-1.5V9zM.934 10.47a.75.75 0 001.06 1.06l-1.06-1.06zm6.27 10.336a.75.75 0 00-1.449.388l1.45-.388zM6.53 17.53l2.5-2.5-1.06-1.06-2.5 2.5 1.06 1.06zm2.5-3.56l-2.5-2.5-1.06 1.06 2.5 2.5 1.06-1.06zM1 15.25h7.5v-1.5H1v1.5zM4.42 6.7a.3.3 0 01.16-.408l-.5-1.415c-1 .353-1.46 1.497-1.024 2.448L4.419 6.7zm.16-.408a3.828 3.828 0 011.263-.222v-1.5c-.612 0-1.211.113-1.762.307l.498 1.415zm1.263-.222c.612 0 1.193.147 1.697.402l.677-1.339a5.261 5.261 0 00-2.374-.563v1.5zm2.387.395c1.427-.758 3.43-1.215 5.304-1.215v-1.5c-2.078 0-4.33.5-6.008 1.39l.704 1.325zm5.304-1.215c5.201 0 8.966 3.582 8.966 7.688H24c0-5.106-4.619-9.188-10.466-9.188v1.5zm8.966 7.688c0 1.721-.702 3.242-1.933 4.54l1.088 1.032C23.103 16.985 24 15.107 24 12.938h-1.5zm-1.933 4.54a1.79 1.79 0 00-.375.592l1.401.536a.288.288 0 01.061-.095l-1.087-1.034zm-.392.642l-1.29 4.245 1.434.437 1.291-4.246-1.435-.436zM18.9 22.318a.273.273 0 01-.252.182V24c.74 0 1.396-.464 1.655-1.151l-1.403-.531zm-.252.182h-2.402V24h2.402v-1.5zm-2.402 0a.278.278 0 01-.267-.233l-1.473.283c.16.833.882 1.45 1.74 1.45v-1.5zm-.26-.19l-.174-1.316-1.487.197.174 1.316 1.487-.197zm-.181-1.358a1.778 1.778 0 00-1.74-1.452V21c.12 0 .239.089.267.233l1.473-.282zm-1.74-1.452h-1.76V21h1.76v-1.5zm-1.76 0c-.859 0-1.58.619-1.74 1.45l1.473.284a.279.279 0 01.267-.234v-1.5zm-1.751 1.526l-.118 1.316 1.494.133.118-1.316-1.494-.133zm-.107 1.241a.277.277 0 01-.267.233V24c.858 0 1.58-.617 1.74-1.45l-1.473-.283zm-.267.233H7.862V24h2.318v-1.5zm-2.318 0a.275.275 0 01-.26-.2l-1.432.444c.23.74.908 1.256 1.692 1.256v-1.5zm-4.83-11.478c.453-.06.832-.305 1.092-.617l-1.153-.96c-.055.066-.109.087-.136.09l.197 1.487zm1.092-.618l.56-.675-1.154-.957-.56.675 1.154.957zm.56-.674a1.807 1.807 0 00.25-1.904l-1.363.625a.307.307 0 01-.041.32l1.154.959zm.25-1.904L4.42 6.7l-1.364.625.516 1.126 1.364-.625zM12.75 2.25a.75.75 0 01.75-.75V0a2.25 2.25 0 00-2.25 2.25h1.5zm.75-.75a.75.75 0 01.75.75h1.5A2.25 2.25 0 0013.5 0v1.5zm-3 7.5h5.25V7.5H10.5V9zm-8.505 2.53c.27-.27.63-.455 1.036-.508l-.195-1.487a3.29 3.29 0 00-1.902.935l1.06 1.06zM7.61 22.328l-.407-1.522-1.449.388.407 1.521 1.449-.387z" fill="#000"/></svg>
